X:4552
T:Nae Luck Aboot the Hoose (Washing Day)
O:england
C:trad
M:4/4
L:1/8
K:G
|:d|g3/2e/2d3/2B/2 c3/2d/2e3/2f/2|g3/2e/2d3/2B/2 A3d|g3/2e/2d3/2B/2 c3/2d/2e3/2g/2|
d3/2c/2B3/2A/2 G3:|
|:A|B2B3/2G/2 c2c3/2A/2|B2B3/2G/2 A3d|B3/2B/2B3/2G/2 c3/2d/2e3/2g/2|
d3/2c/2B3/2A/2 G3:|


